X:4915
T:Exile Of Erin
R:Reel
S:Tony Sullivan
H:
N:
D:Sully's Fancy
Z:Adrian Scahill
M:4/4
L:1/8
K:G
FGAG FDDE|(3FED AG FDD2|defe dcAG|(3EFG AB cAA2|\
FGAG FDDE|(3FED AG FDCD|A,DD2 CDA,D|G,A,CD EDD2:||\
dfed cAGc|A2GA FAEA|dfed (3B^cd ef|(3gab ge fde^c|\
dfed cAGc|A2GA FAEA|DAAB cAdB|cAGE D4:||
